X: 21403
T: TIBBIE FOWLER
R: Strathspey
B: W. Hamilton "Universal Tune-Book" Vol. 2 Glasgow 1846 p.140 #3
S: http://s3-eu-west-1.amazonaws.com/itma.dl.printmaterial/book_pdfs/hamiltonvol2web.pdf
Z: 2016 John Chambers <jc:trillian.mit.edu>
M: C
L: 1/16
K: Am
% - - - - - - - - - - - - - - - - - - - - - - - - -
B2 |\
AAA2 A3B G3AB2d2 | e2A2-A3B dcBA G3B |\
AAA2 A3B B3AB2d2 | e2A2-A3B G2E2E2 :|\
a2 |\
g2e2-e3g d3ed2B2 | g2e2-e3g a3bge3 |
d3eg3b e3g (ed)(cB) | e3A2-A3B G2E2E3a |\
g2e2-e3g de3{e}d2{c}B2 | g2e2-e3a g2b3ae2 |\
g3be3g d3gB3d | e2A2-A3B G2E2E2 |]
% - - - - - - - - - - - - - - - - - - - - - - - - -

%%sep 1 1 500
%%sep 1 1 500

